public/images/stack-overflow.svg

<svg viewBox="0 0 384 512" xmlns="http://www.w3.org/2000/svg"><path d="m290.7 311-195.7-41.3-8.2 39.3 195.7 41zm51-87-153.5-128.3-25.5 30.8 153.5 128.3zm-31.2 39.7-181.3-84.7-16.7 36.5 181.2 84.5zm-48.5-231.7-32 24 119.3 160.3 32-24zm20.5 328h-200v39.7h200zm39.7 80h-279.5v-120h-40v160h359.5v-160h-40z" fill="#fff"/></svg>

<svg xmlns="http://www.w3.org/2000/svg" aria-hidden="true" class="svg-inline--fa fa-stack-overflow fa-w-12" data-icon="stack-overflow" data-prefix="fab" focusable="false" role="img" viewBox="0 0 384 512"><path fill="#fff" d="M290.7 311L95 269.7 86.8 309l195.7 41zm51-87L188.2 95.7l-25.5 30.8 153.5 128.3zm-31.2 39.7L129.2 179l-16.7 36.5L293.7 300zM262 32l-32 24 119.3 160.3 32-24zm20.5 328h-200v39.7h200zm39.7 80H42.7V320h-40v160h359.5V320h-40z"/></svg>
